X:30
T: First Light of Day
S: J. Cronin - J. Burke
Z: B.Black
R: hornpipe
M: 4/4
L: 1/8
K: Edor
B,D | E3 F EDB,D | GFGB A2 GA | Bdgf edBA |\
GEEF D2 B,D |
E3 F EDB,D | GFGB A2 GA | Bdgf edBA | GEED E2 :|
Bd | efed BdBA | GABc d2 Bd | e3 d B3 A |\
GEEF D2 B,D |
E3 F EDB,D | GFGB A2 GA | Bdgf edBA | GEED E2 :|
